X:1
T:Day Before the Pyper, A
C:Ed Yother
C:c. 2005
C:http://edyother.com
M:4/4
R:Reel
K:Dm
DG (3GGG FGAB | cBAc  dcA2 | FA (3AAA cBAG | FGAB cdc2 |
 DG (3GGG FGAB | cBAc  dcA2 | (3fff fe dcAc | dcBA G2G2 :|
|:(3ggg ga gfde | (3fff fg fdcd | (3ggg ga gfde | fdef gbaf |
 (3ggg ga gfde | (3fff fg fdcd | (3ggg ga gfde | fdcA  G2G2 :|

